X: 5
T: John Ryan's
R: polka
M: 2/4
L: 1/8
K: Dmaj
|: | dd B/c/d/B/ | AF AD | dd B/c/d/B/ | AF ED |
dd B/c/d/B/ | AF Ad/e/ | fd eg |fd d2 :|
|: d/e/ | fd de/f/ | gf ed/e/ | fd Ad | fd/f/ ag |
fd de/f/ | gf ed/e/ | fd ec | d2 d2 :|


Tune 441	Setting 26356

